src/assets/images/components/section/home/SectionHomeMain/bottom-rating.svg

<svg fill="none" height="194" viewBox="0 0 305 194" width="305" xmlns="http://www.w3.org/2000/svg" xmlns:xlink="http://www.w3.org/1999/xlink"><filter id="a" color-interpolation-filters="sRGB" filterUnits="userSpaceOnUse" height="194" width="304.725" x="0" y="0"><feFlood flood-opacity="0" result="BackgroundImageFix"/><feColorMatrix in="SourceAlpha" result="hardAlpha" type="matrix" values="0 0 0 0 0 0 0 0 0 0 0 0 0 0 0 0 0 0 127 0"/><feMorphology in="SourceAlpha" operator="dilate" radius="11" result="effect1_dropShadow_145_5305"/><feOffset dx="1" dy="2"/><feGaussianBlur stdDeviation="18.5"/><feColorMatrix type="matrix" values="0 0 0 0 0 0 0 0 0 0 0 0 0 0 0 0 0 0 0.0585664 0"/><feBlend in2="BackgroundImageFix" mode="normal" result="effect1_dropShadow_145_5305"/><feBlend in="SourceGraphic" in2="effect1_dropShadow_145_5305" mode="normal" result="shape"/></filter><mask id="b" height="35" maskUnits="userSpaceOnUse" width="36" x="76" y="80"><ellipse cx="94.4379" cy="97.5" fill="#fff" rx="17.4769" ry="17.5"/></mask><g filter="url(#a)"><rect fill="#fff" height="98" rx="12" width="208.725" x="47" y="46"/><rect height="93" rx="9.5" stroke="#fff" stroke-width="5" width="203.725" x="49.5" y="48.5"/></g><ellipse cx="94.4379" cy="97.5" fill="#7edaa4" rx="17.4769" ry="17.5"/><g mask="url(#b)"><path clip-rule="evenodd" d="m95.0044 102.08c-.355-.186-.7792-.186-1.1342 0l-2.2763 1.199c-.893.47-1.9374-.288-1.767-1.283l.4355-2.5427c.0676-.3945-.0631-.7971-.3496-1.0767l-1.8461-1.8019c-.7217-.7044-.323-1.9307.6751-2.0759l2.5484-.3708c.3966-.0577.7394-.3069.9166-.6665l1.1386-2.3099c.4463-.9056 1.7375-.9056 2.1839 0l1.1385 2.3099c.1772.3596.52.6088.9167.6665l2.5485.3708c.998.1452 1.397 1.3715.675 2.0759l-1.8462 1.8019c-.2865.2796-.4172.6822-.3496 1.0767l.4356 2.5427c.1703.995-.874 1.753-1.7671 1.283z" fill="#fff" fill-rule="evenodd"/></g><g fill="#f4f3f8"><rect height="10" rx="5" width="107.858" x="119.904" y="85"/><rect height="10" rx="5" width="68.9091" x="119.904" y="101"/></g></svg>

<svg width="305" height="194" viewBox="0 0 305 194" fill="none" xmlns="http://www.w3.org/2000/svg">
<g filter="url(#filter0_d_145_5305)">
<rect x="47" y="46" width="208.725" height="98" rx="12" fill="white"/>
<rect x="49.5" y="48.5" width="203.725" height="93" rx="9.5" stroke="white" stroke-width="5"/>
</g>
<ellipse cx="94.4379" cy="97.5" rx="17.4769" ry="17.5" fill="#7EDAA4"/>
<mask id="mask0_145_5305" style="mask-type:alpha" maskUnits="userSpaceOnUse" x="76" y="80" width="36" height="35">
<ellipse cx="94.4379" cy="97.5" rx="17.4769" ry="17.5" fill="white"/>
</mask>
<g mask="url(#mask0_145_5305)">
<path fill-rule="evenodd" clip-rule="evenodd" d="M95.0044 102.08C94.6494 101.894 94.2252 101.894 93.8702 102.08L91.5939 103.279C90.7009 103.749 89.6565 102.991 89.8269 101.996L90.2624 99.4533C90.33 99.0588 90.1993 98.6562 89.9128 98.3766L88.0667 96.5747C87.345 95.8703 87.7437 94.644 88.7418 94.4988L91.2902 94.128C91.6868 94.0703 92.0296 93.8211 92.2068 93.4615L93.3454 91.1516C93.7917 90.246 95.0829 90.246 95.5293 91.1516L96.6678 93.4615C96.845 93.8211 97.1878 94.0703 97.5845 94.128L100.133 94.4988C101.131 94.644 101.53 95.8703 100.808 96.5747L98.9618 98.3766C98.6753 98.6562 98.5446 99.0588 98.6122 99.4533L99.0478 101.996C99.2181 102.991 98.1738 103.749 97.2807 103.279L95.0044 102.08Z" fill="white"/>
</g>
<rect x="119.904" y="85" width="107.858" height="10" rx="5" fill="#F4F3F8"/>
<rect x="119.904" y="101" width="68.9091" height="10" rx="5" fill="#F4F3F8"/>
<defs>
<filter id="filter0_d_145_5305" x="0" y="0" width="304.725" height="194" filterUnits="userSpaceOnUse" color-interpolation-filters="sRGB">
<feFlood flood-opacity="0" result="BackgroundImageFix"/>
<feColorMatrix in="SourceAlpha" type="matrix" values="0 0 0 0 0 0 0 0 0 0 0 0 0 0 0 0 0 0 127 0" result="hardAlpha"/>
<feMorphology radius="11" operator="dilate" in="SourceAlpha" result="effect1_dropShadow_145_5305"/>
<feOffset dx="1" dy="2"/>
<feGaussianBlur stdDeviation="18.5"/>
<feColorMatrix type="matrix" values="0 0 0 0 0 0 0 0 0 0 0 0 0 0 0 0 0 0 0.0585664 0"/>
<feBlend mode="normal" in2="BackgroundImageFix" result="effect1_dropShadow_145_5305"/>
<feBlend mode="normal" in="SourceGraphic" in2="effect1_dropShadow_145_5305" result="shape"/>
</filter>
</defs>
</svg>
